; generated by PrusaSlicer 2.7.1+win64 on 2024-02-10 at 08:11:02 UTC


;
;

;
;

;
;
; 

; external perimeters extrusion width = 0.45mm
; perimeters extrusion width = 0.45mm
; infill extrusion width = 0.45mm
; solid infill extrusion width = 0.45mm
; top infill extrusion width = 0.42mm
; first layer extrusion width = 0.50mm

; external perimeters extrusion width = 0.45mm
; perimeters extrusion width = 0.45mm
; infill extrusion width = 0.45mm
; solid infill extrusion width = 0.45mm
; top infill extrusion width = 0.42mm
; first layer extrusion width = 0.50mm

; external perimeters extrusion width = 0.45mm
; perimeters extrusion width = 0.45mm
; infill extrusion width = 0.45mm
; solid infill extrusion width = 0.45mm
; top infill extrusion width = 0.42mm
; first layer extrusion width = 0.50mm

; external perimeters extrusion width = 0.45mm
; perimeters extrusion width = 0.45mm
; infill extrusion width = 0.45mm
; solid infill extrusion width = 0.45mm
; top infill extrusion width = 0.42mm
; first layer extrusion width = 0.50mm

M73 P0 R45
M201 X7000 Y7000 Z200 E2500 ; sets maximum accelerations, mm/sec^2
M203 X450 Y450 Z12 E100 ; sets maximum feedrates, mm / sec
M204 P4000 R1200 T5000 ; sets acceleration (P, T) and retract acceleration (R), mm/sec^2
M205 X8.00 Y8.00 Z2.00 E10.00 ; sets the jerk limits, mm/sec
M205 S0 T0 ; sets the minimum extruding and travel feed rate, mm/sec

; printing object Dots id:0 copy 0
; stop printing object Dots id:0 copy 0
; printing object Dots id:1 copy 0
; stop printing object Dots id:1 copy 0

;TYPE:Custom
M17 ; enable steppers
M862.3 P "XL" ; printer model check
M862.5 P2 ; g-code level check
M862.6 P"Input shaper" ; FW feature check
M115 U5.1.0+13455
G90 ; use absolute coordinates
M83 ; extruder relative mode
; set print area
M555 X174.079 Y160.206 W46.176 H116.787
; inform about nozzle diameter
M862.1 T0 P0.4
M862.1 T1 P0.4




; turn off unused heaters


 M104 T2 S0 
 M104 T3 S0 
 M104 T4 S0 

M217 Z2 ; set toolchange z hop to 2mm, or zhop variable from slicer if higher
; set bed and extruder temp for MBL
M140 S60 ; set bed temp
G0 Z5 ; add Z clearance
M109 T0 S170 ; wait for temp

; Home XY
G28 XY
; try picking tools used in print
G1 F24000

T1 S1 L0 D0



; select tool that will be used to home & MBL
T0 S1 L0 D0
; home Z with MBL tool
M84 E ; turn off E motor
G28 Z
G0 Z5 ; add Z clearance
M73 P0 R44
M190 S60 ; wait for bed temp
G29 G ; absorb heat
; move to the nozzle cleanup area
G1 X206.079 Y153.206 Z5 F24000
M302 S160 ; lower cold extrusion limit to 160C
G1 E-2 F2400 ; retraction for nozzle cleanup
; nozzle cleanup
M84 E ; turn off E motor
G29 P9 X174.079 Y153.206 W32 H7
G0 Z5 F480 ; move away in Z
M107 ; turn off the fan
; MBL
M84 E ; turn off E motor
G29 P1 ; invalidate mbl & probe print area
G29 P1 X30 Y0 W130 H20 C ; probe near purge place
G29 P3.2 ; interpolate mbl probes
G29 P3.13 ; extrapolate mbl outside probe area
G29 A ; activate mbl
G1 Z10 F720 ; move away in Z
G1 F24000
P0 S1 L1 D0; park the tool
; set extruder temp
M104 T0 S230
M104 T1 S230





;
; purge second tool
;
G1 F24000
P0 S1 L2 D0; park the tool
M109 T1 S230
T1 S1 L0 D0; pick the tool
G92 E0 ; reset extruder position

M104 T0 P13 S220
G0 X150 Y-7 Z10 F24000 ; move close to the sheet's edge
M104 T1 P61 S220
G0 E30 X140 Z0.2 F170 ; purge while moving towards the sheet
G0 X110 E9 F800 ; continue purging and wipe the nozzle
G0 X107 Z0.05 F8000 ; wipe, move close to the bed
G0 X104 Z0.2 F8000 ; wipe, move quickly away from the bed
G1 E-1.2 F2400 ; retract
 ; update slicer internal retract variable
G92 E0 ; reset extruder position

M104 S70 T1




;
; purge initial tool
;
G1 F24000
P0 S1 L2 D0; park the tool
M109 T0 S230
T0 S1 L0 D0; pick the tool
G92 E0 ; reset extruder position

G0 X30 Y-7 Z10 F24000 ; move close to the sheet's edge
M104 T1 P52 S220
G0 E30 X40 Z0.2 F170 ; purge while moving towards the sheet
G0 X70 E9 F800 ; continue purging and wipe the nozzle
G0 X73 Z0.05 F8000 ; wipe, move close to the bed
M73 P1 R44
G0 X76 Z0.2 F8000 ; wipe, move quickly away from the bed
G1 E-1.2 F2400 ; retract

G92 E0 ; reset extruder position

M593 X T2 F35.8
M593 Y T2 F35.4
G21 ; set units to millimeters
G90 ; use absolute coordinates
M83 ; use relative distances for extrusion
; MFM TOOLCHANGE START
; Change Tool-1 -> Tool0 (layer -1)
G1 F21000
T0 S1 L0 D0

; MFM TOOLCHANGE END
M900 K0.05 ; Filament gcode


M572 S0.038 ; Filament gcode


M142 S36 ; set heatbreak target temp
M109 S230 T0 ; set temperature and wait for it to be reached
G1 Z.2 F720
M107
;LAYER_CHANGE
;Z:0.2
;HEIGHT:0.2
;BEFORE_LAYER_CHANGE
G92 E0.0
;0.2


;AFTER_LAYER_CHANGE
;0.2
; MFM LAYER CHANGE END
; printing object Dots id:0 copy 0
G1 X185.831 Y175.596 F24000
G1 Z.2 F720
G1 E1.2 F1500
M204 P500
;TYPE:Perimeter
;WIDTH:0.705534
;HEIGHT:0.2
G1 F2400
G1 X185.732 Y175.615 E.00555
;WIDTH:0.664427
G1 X185.628 Y175.636 E.00548
;WIDTH:0.62332
G1 X185.524 Y175.656 E.00511
;WIDTH:0.582213
G1 X185.421 Y175.677 E.00471
;WIDTH:0.541106
G1 X185.317 Y175.698 E.0044
;WIDTH:0.499999
G1 X174.986 Y175.697 E.39264
G1 X174.986 Y165.454 E.3893
;WIDTH:0.541301
G1 X175.006 Y165.361 E.00394
;WIDTH:0.582602
G1 X175.027 Y165.268 E.00428
;WIDTH:0.623903
G1 X175.048 Y165.174 E.00465
;WIDTH:0.665204
G1 X175.068 Y165.081 E.00492
;WIDTH:0.706505
G1 X175.089 Y164.988 E.00526
G1 X175.074 Y164.484 E.02782
;WIDTH:0.699484
G1 X175.085 Y163.928 E.03036
G1 X175.061 Y163.786 E.00786
;WIDTH:0.649613
G1 X175.036 Y163.644 E.00727
;WIDTH:0.599742
G1 X175.011 Y163.502 E.00668
;WIDTH:0.549871
G1 X174.986 Y163.36 E.00608
;WIDTH:0.499999
G1 X174.986 Y161.113 E.0854
G1 X177.316 Y161.113 E.08855
;WIDTH:0.542705
G1 X177.416 Y161.134 E.00425
;WIDTH:0.585411
G1 X177.515 Y161.156 E.00457
;WIDTH:0.628117
G1 X177.614 Y161.177 E.00492
;WIDTH:0.670823
G1 X177.714 Y161.198 E.00533
;WIDTH:0.713528
G1 X177.813 Y161.22 E.00566
G1 X178.276 Y161.208 E.02583
;WIDTH:0.716276
G1 X178.799 Y161.221 E.02929
G1 X178.903 Y161.199 E.00595
;WIDTH:0.673021
G1 X179.008 Y161.178 E.00561
;WIDTH:0.629766
G1 X179.112 Y161.156 E.00519
;WIDTH:0.58651
G1 X179.217 Y161.135 E.00484
;WIDTH:0.543255
G1 X179.321 Y161.113 E.00442
;WIDTH:0.499999
G1 X189.57 Y161.113 E.38953
G1 X189.57 Y171.53 E.39591
;WIDTH:0.54277
G1 X189.549 Y171.634 E.00441
;WIDTH:0.58554
G1 X189.528 Y171.738 E.00479
;WIDTH:0.62831
G1 X189.506 Y171.842 E.00517
;WIDTH:0.67108
G1 X189.485 Y171.946 E.00554
;WIDTH:0.71385
G1 X189.463 Y172.05 E.00593
G1 X189.468 Y172.249 E.01111
;WIDTH:0.711498
G1 X189.465 Y172.76 E.02841
G1 X189.486 Y172.864 E.0059
;WIDTH:0.669199
G1 X189.507 Y172.968 E.00553
;WIDTH:0.626899
G1 X189.528 Y173.072 E.00515
;WIDTH:0.584599
G1 X189.549 Y173.176 E.00478
;WIDTH:0.542299
G1 X189.57 Y173.28 E.00441
;WIDTH:0.499999
G1 X189.57 Y175.698 E.0919
G1 X187.144 Y175.698 E.0922
;WIDTH:0.540392
G1 X187.071 Y175.677 E.00314
;WIDTH:0.580785
G1 X186.999 Y175.657 E.00334
;WIDTH:0.621178
G1 X186.927 Y175.637 E.00359
;WIDTH:0.66157
G1 X186.855 Y175.617 E.00384
;WIDTH:0.691146
G1 X186.346 Y175.602 E.02745
;WIDTH:0.705534
G1 X185.89 Y175.596 E.02513
M204 P2500
G1 E-.64 F2100
;WIPE_START
G1 F19200
G1 X185.831 Y175.596 E-.00613
G1 X185.732 Y175.615 E-.01047
;WIPE_END
G1 E-.1434 F2100
M204 T5000
G1 Z.5 F720
G1 X174.687 Y176.126 F24000
G1 Z.2 F720
G1 E.8 F1500
M204 P500
;TYPE:External perimeter
;WIDTH:0.499999
G1 F2400
G1 X174.559 Y176.006 E.00667
G1 X174.529 Y175.773 E.00893
G1 X174.529 Y160.989 E.56188
G1 X174.569 Y160.795 E.00753
G1 X174.687 Y160.685 E.00613
G1 X174.813 Y160.656 E.00491
G1 X189.694 Y160.656 E.56557
G1 X189.869 Y160.685 E.00674
G1 X189.987 Y160.795 E.00613
G1 X190.027 Y160.989 E.00753
G1 X190.027 Y175.734 E.5604
G1 X189.987 Y176.015 E.01079
G1 X189.876 Y176.119 E.00578
G1 X189.638 Y176.155 E.00915
G1 X174.924 Y176.155 E.55922
G1 X174.747 Y176.133 E.00678
M204 P2500
G1 E-.64 F2100
;WIPE_START
G1 F19200
G1 X174.687 Y176.126 E-.00628
G1 X174.559 Y176.006 E-.01823
G1 X174.529 Y175.773 E-.02441
G1 X174.529 Y174.704 E-.11108
;WIPE_END
G1 Z.5 F720
G1 X175.833 Y165.058 F24000
G1 Z.2 F720
G1 E.8 F1500
M204 P500
;TYPE:Perimeter
;WIDTH:0.662393
G1 F2400
G1 X175.789 Y164.979 E.00466
;WIDTH:0.702991
G1 X175.744 Y164.898 E.00509
G1 X175.711 Y164.417 E.02646
;WIDTH:0.699484
G1 X175.741 Y163.956 E.02522
G1 X175.809 Y163.816 E.0085
;WIDTH:0.649613
G1 X175.877 Y163.677 E.00781
;WIDTH:0.599742
G1 X175.946 Y163.537 E.00723
;WIDTH:0.549871
G1 X176.014 Y163.398 E.00652
;WIDTH:0.499999
G1 X176.226 Y163.019 E.0165
G1 X176.502 Y162.684 E.0165
G1 X176.833 Y162.403 E.0165
G1 X177.207 Y162.184 E.01647
;WIDTH:0.542705
G1 X177.339 Y162.124 E.00603
;WIDTH:0.585411
G1 X177.471 Y162.065 E.00652
;WIDTH:0.628117
G1 X177.602 Y162.005 E.00701
;WIDTH:0.670823
G1 X177.734 Y161.946 E.00755
;WIDTH:0.713528
G1 X177.865 Y161.886 E.00803
G1 X178.255 Y161.855 E.02182
;WIDTH:0.716276
G1 X178.717 Y161.884 E.02592
G1 X178.853 Y161.954 E.00856
;WIDTH:0.673021
G1 X178.989 Y162.024 E.00801
;WIDTH:0.629766
G1 X179.124 Y162.093 E.0074
;WIDTH:0.58651
G1 X179.26 Y162.163 E.00691
;WIDTH:0.543255
G1 X179.396 Y162.232 E.00634
;WIDTH:0.499999
G1 X179.875 Y162.565 E.02217
G1 X180.287 Y163.029 E.02358
G1 X180.497 Y163.409 E.0165
G1 X180.637 Y163.82 E.0165
G1 X180.702 Y164.277 E.01754
G1 X180.673 Y164.826 E.02089
G1 X180.534 Y165.313 E.01925
G1 X180.339 Y165.7 E.01647
G1 X180.057 Y166.067 E.01759
G1 X179.672 Y166.41 E.0196
G1 X179.199 Y166.671 E.02053
G1 X178.756 Y166.807 E.01761
G1 X178.355 Y166.858 E.01536
G1 X177.894 Y166.832 E.01755
G1 X177.304 Y166.669 E.02326
G1 X176.912 Y166.462 E.01685
G1 X176.571 Y166.194 E.01648
G1 X176.273 Y165.852 E.01724
G1 X175.967 Y165.301 E.02395
;WIDTH:0.540598
G1 X175.922 Y165.221 E.0038
;WIDTH:0.581196
G1 X175.878 Y165.14 E.00413
;WIDTH:0.621795
G1 X175.862 Y165.11 E.00164
M204 P2500
G1 X176.295 Y164.802 F24000
M204 P500
;TYPE:External perimeter
;WIDTH:0.499999
G1 F2400
G1 X176.256 Y164.464 E.01293
G1 X176.305 Y163.955 E.01943
G1 X176.418 Y163.611 E.01376
G1 X176.586 Y163.301 E.0134
G1 X176.807 Y163.024 E.01347
G1 X177.073 Y162.791 E.01344
G1 X177.375 Y162.609 E.0134
G1 X177.714 Y162.481 E.01377
G1 X177.953 Y162.443 E.0092
G1 X178.22 Y162.407 E.01024
G1 X178.581 Y162.433 E.01376
G1 X178.923 Y162.522 E.01343
G1 X179.245 Y162.669 E.01345
G1 X179.541 Y162.878 E.01377
G1 X179.892 Y163.261 E.01974
G1 X180.068 Y163.567 E.01342
G1 X180.187 Y163.9 E.01344
G1 X180.246 Y164.258 E.01379
G1 X180.219 Y164.769 E.01945
G1 X180.121 Y165.117 E.01374
G1 X179.967 Y165.435 E.01343
G1 X179.752 Y165.727 E.01378
G1 X179.368 Y166.065 E.01944
G1 X179.05 Y166.239 E.01378
G1 X178.686 Y166.355 E.01452
G1 X178.365 Y166.401 E.01232
G1 X178.003 Y166.388 E.01377
G1 X177.508 Y166.26 E.01943
G1 X177.186 Y166.096 E.01373
G1 X176.905 Y165.882 E.01342
G1 X176.666 Y165.619 E.01351
G1 X176.402 Y165.162 E.02006
G1 X176.309 Y164.86 E.01201
M204 P2500
G1 E-.64 F2100
;WIPE_START
G1 F19200
G1 X176.295 Y164.802 E-.0062
G1 X176.256 Y164.464 E-.03535
G1 X176.305 Y163.955 E-.05313
G1 X176.418 Y163.611 E-.03762
G1 X176.545 Y163.376 E-.0277
;WIPE_END
G1 Z.5 F720
G1 X185.481 Y174.75 F24000
G1 Z.2 F720
G1 E.8 F1500
M204 P500
;TYPE:Perimeter
;WIDTH:0.582213
G1 F2400
G1 X185.347 Y174.689 E.0066
;WIDTH:0.541106
G1 X185.208 Y174.627 E.0063
;WIDTH:0.499999
G1 X184.686 Y174.292 E.02357
G1 X184.357 Y173.965 E.01763
G1 X184.029 Y173.439 E.02356
G1 X183.845 Y172.885 E.02219
G1 X183.798 Y172.453 E.01652
G1 X183.823 Y172.043 E.01561
G1 X183.955 Y171.547 E.01951
G1 X184.198 Y171.058 E.02075
G1 X184.502 Y170.684 E.01832
G1 X184.833 Y170.403 E.0165
G1 X185.207 Y170.184 E.01647
G1 X185.643 Y170.029 E.01759
G1 X186.249 Y169.95 E.02323
G1 X186.691 Y169.989 E.01686
G1 X187.11 Y170.104 E.01651
G1 X187.502 Y170.291 E.01651
G1 X187.854 Y170.544 E.01648
G1 X188.174 Y170.88 E.01763
G1 X188.497 Y171.409 E.02356
;WIDTH:0.54277
G1 X188.557 Y171.549 E.00633
;WIDTH:0.58554
G1 X188.617 Y171.689 E.00687
;WIDTH:0.62831
G1 X188.677 Y171.829 E.00741
;WIDTH:0.67108
G1 X188.738 Y171.969 E.00798
;WIDTH:0.71385
G1 X188.798 Y172.109 E.0085
G1 X188.798 Y172.699 E.03291
;WIDTH:0.713518
G1 X188.738 Y172.839 E.00849
;WIDTH:0.670815
G1 X188.678 Y172.98 E.008
;WIDTH:0.628111
G1 X188.617 Y173.12 E.00743
;WIDTH:0.585407
G1 X188.557 Y173.261 E.00691
;WIDTH:0.542703
G1 X188.497 Y173.401 E.00633
;WIDTH:0.499999
G1 X188.196 Y173.902 E.02221
G1 X187.736 Y174.359 E.02464
G1 X187.208 Y174.667 E.02323
;WIDTH:0.525613
G1 X187.061 Y174.731 E.00643
;WIDTH:0.551226
G1 X186.914 Y174.796 E.00679
;WIDTH:0.591806
G1 X186.859 Y174.828 E.0029
;WIDTH:0.632386
G1 X186.804 Y174.86 E.00312
;WIDTH:0.672966
G1 X186.75 Y174.892 E.00329
;WIDTH:0.713546
G1 X186.695 Y174.924 E.00355
G1 X186.04 Y174.949 E.03655
;WIDTH:0.705534
G1 X185.901 Y174.939 E.00768
G1 X185.763 Y174.876 E.00836
;WIDTH:0.664427
G1 X185.624 Y174.814 E.00787
;WIDTH:0.62332
G1 X185.536 Y174.774 E.00467
M204 P2500
G1 X185.606 Y174.292 F24000
M204 P500
;TYPE:External perimeter
;WIDTH:0.499999
G1 F2400
G1 X185.331 Y174.178 E.01131
G1 X184.905 Y173.881 E.01974
G1 X184.661 Y173.613 E.01377
G1 X184.402 Y173.162 E.01977
G1 X184.298 Y172.824 E.01344
G1 X184.255 Y172.473 E.01344
G1 X184.272 Y172.129 E.01309
G1 X184.408 Y171.634 E.01951
G1 X184.586 Y171.301 E.01435
G1 X184.807 Y171.024 E.01347
G1 X185.073 Y170.791 E.01344
G1 X185.375 Y170.609 E.0134
G1 X185.852 Y170.459 E.019
G1 X186.22 Y170.407 E.01413
G1 X186.581 Y170.433 E.01376
G1 X186.923 Y170.522 E.01343
G1 X187.245 Y170.669 E.01345
G1 X187.535 Y170.871 E.01343
G1 X187.79 Y171.128 E.01376
G1 X188.068 Y171.567 E.01975
G1 X188.187 Y171.9 E.01344
G1 X188.246 Y172.249 E.01345
G1 X188.243 Y172.602 E.01342
G1 X188.177 Y172.949 E.01342
G1 X188.051 Y173.279 E.01343
G1 X187.862 Y173.589 E.0138
G1 X187.496 Y173.97 E.02008
G1 X187.058 Y174.235 E.01946
G1 X186.608 Y174.367 E.01782
G1 X186.052 Y174.394 E.02116
G1 X185.666 Y174.317 E.01496
G1 X185.662 Y174.315 E.00017
M204 P2500
G1 E-.64 F2100
;WIPE_START
G1 F19200
G1 X185.606 Y174.292 E-.00629
G1 X185.331 Y174.178 E-.03093
G1 X184.905 Y173.881 E-.05396
G1 X184.661 Y173.613 E-.03766
G1 X184.512 Y173.353 E-.03116
;WIPE_END
G1 Z.5 F720
G1 X188.722 Y173.319 F24000
G1 Z.2 F720
G1 E.8 F1500
M204 P500
;TYPE:Solid infill
;WIDTH:0.560752
G1 F2400
G1 X189.182 Y173.778 E.02798
G1 X189.182 Y174.511 E.03156
G1 X188.632 Y173.961 E.03349
G1 X188.486 Y174.161 E.01066
G1 X188.299 Y174.36 E.01176
G1 X189.182 Y175.243 E.05377
G1 X189.182 Y175.309 E.00284
G1 X188.516 Y175.309 E.02868
G1 X187.913 Y174.706 E.03672
G1 X187.541 Y174.937 E.01885
G1 X187.453 Y174.979 E.0042
G1 X187.989 Y175.515 E.03264
M204 P2500
G1 E-.64 F2100
;WIPE_START
G1 F19200
G1 X187.453 Y174.979 E-.07876
G1 X187.541 Y174.937 E-.01013
G1 X187.913 Y174.706 E-.0455
G1 X188.087 Y174.88 E-.02561
;WIPE_END
G1 Z.5 F720
G1 X188.461 Y161.296 F24000
G1 Z.2 F720
G1 E.8 F1500
M204 P500
;WIDTH:0.501404
G1 F2400
G1 X189.182 Y162.017 E.03887
G1 X189.182 Y162.665 E.0247
G1 X188.018 Y161.501 E.06276
G1 X187.369 Y161.501 E.02474
G1 X189.182 Y163.314 E.09775
G1 X189.182 Y163.962 E.0247
G1 X186.721 Y161.501 E.13268
G1 X186.073 Y161.501 E.0247
G1 X189.182 Y164.611 E.16765
G1 X189.182 Y165.259 E.0247
G1 X185.424 Y161.501 E.20261
G1 X184.776 Y161.501 E.0247
G1 X189.182 Y165.907 E.23755
M104 T1 P36 S220
G1 X189.182 Y166.556 E.02474
G1 X184.127 Y161.501 E.27254
G1 X183.479 Y161.501 E.0247
G1 X189.182 Y167.204 E.30747
G1 X189.182 Y167.853 E.02474
M104 T0 P84 S220
G1 X182.831 Y161.501 E.34244
G1 X182.182 Y161.501 E.02474
G1 X189.182 Y168.501 E.3774
G1 X189.182 Y169.149 E.0247
G1 X181.534 Y161.501 E.41234
G1 X180.886 Y161.501 E.0247
G1 X189.182 Y169.798 E.4473
G1 X189.182 Y170.446 E.0247
G1 X180.237 Y161.501 E.48226
G1 X179.589 Y161.501 E.0247
G1 X189.182 Y171.095 E.51723
G1 X189.182 Y171.513 E.01594
G1 X189.136 Y171.697 E.00723
G1 X188.948 Y171.509 E.01014
G1 X188.858 Y171.266 E.00988
G1 X188.76 Y171.07 E.00835
G1 X188.495 Y170.661 E.01858
G1 X188.356 Y170.491 E.00837
G1 X188.121 Y170.261 E.01254
G1 X187.985 Y170.15 E.00669
G1 X187.714 Y169.966 E.01249
G1 X187.561 Y169.88 E.00669
G1 X187.146 Y169.707 E.01714
G1 X180.948 Y163.509 E.33416
G1 X181.019 Y163.744 E.00936
G1 X181.076 Y164.068 E.01254
