; generated by PrusaSlicer 2.7.1+win64 on 2024-02-17 at 01:24:27 UTC


;
;

;
;

;
;
; 

; external perimeters extrusion width = 0.45mm
; perimeters extrusion width = 0.45mm
; infill extrusion width = 0.45mm
; solid infill extrusion width = 0.45mm
; top infill extrusion width = 0.42mm
; first layer extrusion width = 0.50mm

; external perimeters extrusion width = 0.45mm
; perimeters extrusion width = 0.45mm
; infill extrusion width = 0.45mm
; solid infill extrusion width = 0.45mm
; top infill extrusion width = 0.42mm
; first layer extrusion width = 0.50mm

; external perimeters extrusion width = 0.45mm
; perimeters extrusion width = 0.45mm
; infill extrusion width = 0.45mm
; solid infill extrusion width = 0.45mm
; top infill extrusion width = 0.42mm
; first layer extrusion width = 0.50mm

; external perimeters extrusion width = 0.45mm
; perimeters extrusion width = 0.45mm
; infill extrusion width = 0.45mm
; solid infill extrusion width = 0.45mm
; top infill extrusion width = 0.42mm
; first layer extrusion width = 0.50mm

M73 P0 R40
M201 X7000 Y7000 Z200 E2500 ; sets maximum accelerations, mm/sec^2
M203 X450 Y450 Z12 E100 ; sets maximum feedrates, mm / sec
M204 P4000 R1200 T5000 ; sets acceleration (P, T) and retract acceleration (R), mm/sec^2
M205 X8.00 Y8.00 Z2.00 E10.00 ; sets the jerk limits, mm/sec
M205 S0 T0 ; sets the minimum extruding and travel feed rate, mm/sec

; printing object Die id:0 copy 0
; stop printing object Die id:0 copy 0
; printing object Die id:1 copy 0
; stop printing object Die id:1 copy 0

;TYPE:Custom
M17 ; enable steppers
M862.3 P "XL" ; printer model check
M862.5 P2 ; g-code level check
M862.6 P"Input shaper" ; FW feature check
M115 U5.1.0+13455
G90 ; use absolute coordinates
M83 ; extruder relative mode
; set print area
M555 X156.678 Y136.653 W52.8724 H31.648
; inform about nozzle diameter
M862.1 T0 P0.4
M862.1 T1 P0.4




; turn off unused heaters


 M104 T2 S0 
 M104 T3 S0 
 M104 T4 S0 

M217 Z2 ; set toolchange z hop to 2mm, or zhop variable from slicer if higher
; set bed and extruder temp for MBL
M140 S60 ; set bed temp
G0 Z5 ; add Z clearance
M109 T0 S170 ; wait for temp

; Home XY
G28 XY
; try picking tools used in print
G1 F24000

T1 S1 L0 D0



; select tool that will be used to home & MBL
T0 S1 L0 D0
; home Z with MBL tool
M84 E ; turn off E motor
G28 Z
G0 Z5 ; add Z clearance
M190 S60 ; wait for bed temp
G29 G ; absorb heat
; move to the nozzle cleanup area
G1 X188.678 Y129.653 Z5 F24000
M302 S160 ; lower cold extrusion limit to 160C
G1 E-2 F2400 ; retraction for nozzle cleanup
; nozzle cleanup
M84 E ; turn off E motor
G29 P9 X156.678 Y129.653 W32 H7
G0 Z5 F480 ; move away in Z
M107 ; turn off the fan
; MBL
M84 E ; turn off E motor
G29 P1 ; invalidate mbl & probe print area
G29 P1 X30 Y0 W130 H20 C ; probe near purge place
G29 P3.2 ; interpolate mbl probes
G29 P3.13 ; extrapolate mbl outside probe area
G29 A ; activate mbl
G1 Z10 F720 ; move away in Z
G1 F24000
P0 S1 L1 D0; park the tool
; set extruder temp
M104 T0 S230
M104 T1 S230





;
; purge second tool
;
G1 F24000
P0 S1 L2 D0; park the tool
M109 T1 S230
T1 S1 L0 D0; pick the tool
G92 E0 ; reset extruder position

M104 T0 P12 S220
G0 X150 Y-7 Z10 F24000 ; move close to the sheet's edge
M104 T1 P60 S220
G0 E30 X140 Z0.2 F170 ; purge while moving towards the sheet
G0 X110 E9 F800 ; continue purging and wipe the nozzle
G0 X107 Z0.05 F8000 ; wipe, move close to the bed
G0 X104 Z0.2 F8000 ; wipe, move quickly away from the bed
G1 E-1.2 F2400 ; retract
 ; update slicer internal retract variable
G92 E0 ; reset extruder position

M104 S70 T1




;
; purge initial tool
;
G1 F24000
P0 S1 L2 D0; park the tool
M109 T0 S230
T0 S1 L0 D0; pick the tool
G92 E0 ; reset extruder position

G0 X30 Y-7 Z10 F24000 ; move close to the sheet's edge
M104 T1 P51 S220
G0 E30 X40 Z0.2 F170 ; purge while moving towards the sheet
G0 X70 E9 F800 ; continue purging and wipe the nozzle
M73 P1 R40
G0 X73 Z0.05 F8000 ; wipe, move close to the bed
M73 P1 R39
G0 X76 Z0.2 F8000 ; wipe, move quickly away from the bed
G1 E-1.2 F2400 ; retract

G92 E0 ; reset extruder position

M593 X T2 F35.8
M593 Y T2 F35.4
G21 ; set units to millimeters
G90 ; use absolute coordinates
M83 ; use relative distances for extrusion
; MFPP TOOLCHANGE START
; Change Tool-1 -> Tool0 (layer -1)
G1 F21000
T0 S1 L0 D0

; MFPP TOOLCHANGE END
M900 K0.05 ; Filament gcode


M572 S0.038 ; Filament gcode


M142 S36 ; set heatbreak target temp
M109 S230 T0 ; set temperature and wait for it to be reached
M107
;LAYER_CHANGE
;Z:0.2
;HEIGHT:0.2
;BEFORE_LAYER_CHANGE
G92 E0.0
;0.2


G1 Z.2 F720
;AFTER_LAYER_CHANGE
;0.2
; MFPP LAYER CHANGE END
; printing object Die id:0 copy 0
G1 X157.585 Y167.394 F24000
G1 Z.2 F720
G1 E1.2 F1500
M204 P500
;TYPE:Perimeter
;WIDTH:0.499999
G1 F2400
G1 X157.585 Y156.868 E.40005
;WIDTH:0.545264
G1 X157.607 Y156.746 E.00518
;WIDTH:0.590529
G1 X157.63 Y156.624 E.00565
;WIDTH:0.635794
G1 X157.653 Y156.502 E.00612
;WIDTH:0.681058
G1 X157.675 Y156.38 E.00658
G1 X157.674 Y156.132 E.01316
;WIDTH:0.707843
G1 X157.689 Y155.545 E.03246
G1 X157.668 Y155.434 E.00625
;WIDTH:0.666275
G1 X157.647 Y155.322 E.00591
;WIDTH:0.624706
G1 X157.626 Y155.211 E.00546
;WIDTH:0.583137
G1 X157.606 Y155.099 E.00511
;WIDTH:0.541568
G1 X157.585 Y154.988 E.00468
;WIDTH:0.499999
G1 X157.585 Y152.809 E.08282
G1 X159.641 Y152.809 E.07814
;WIDTH:0.543125
G1 X159.777 Y152.831 E.00573
;WIDTH:0.586251
G1 X159.912 Y152.852 E.00617
;WIDTH:0.629377
G1 X160.047 Y152.874 E.00667
;WIDTH:0.672503
G1 X160.182 Y152.895 E.00715
;WIDTH:0.715629
G1 X160.318 Y152.917 E.00771
G1 X160.875 Y152.904 E.03116
;WIDTH:0.716276
G1 X161.398 Y152.917 E.02929
G1 X161.506 Y152.896 E.00616
;WIDTH:0.673021
G1 X161.615 Y152.874 E.00583
;WIDTH:0.629766
G1 X161.724 Y152.852 E.00543
;WIDTH:0.58651
G1 X161.833 Y152.831 E.00502
;WIDTH:0.543255
G1 X161.942 Y152.809 E.00463
;WIDTH:0.499999
G1 X172.169 Y152.809 E.38869
G1 X172.169 Y167.394 E.55432
G1 X169.742 Y167.394 E.09224
;WIDTH:0.542675
G1 X169.665 Y167.373 E.00332
;WIDTH:0.58535
G1 X169.589 Y167.351 E.00357
;WIDTH:0.628025
G1 X169.512 Y167.33 E.00388
;WIDTH:0.6707
G1 X169.435 Y167.308 E.00418
;WIDTH:0.689537
G1 X168.909 Y167.299 E.02829
;WIDTH:0.708569
G1 X168.408 Y167.29 E.02773
G1 X168.314 Y167.314 E.00537
;WIDTH:0.659341
G1 X168.22 Y167.339 E.00499
;WIDTH:0.610112
G1 X168.126 Y167.363 E.00458
;WIDTH:0.560883
G1 X167.892 Y167.379 E.0101
;WIDTH:0.530441
G1 X167.657 Y167.394 E.00955
;WIDTH:0.499999
G1 X157.645 Y167.394 E.38052
M204 P2500
M204 T5000
G1 X157.286 Y167.822 F24000
M204 P500
;TYPE:External perimeter
G1 F2400
G1 X157.158 Y167.702 E.00667
G1 X157.128 Y167.47 E.00889
G1 X157.128 Y152.685 E.56192
G1 X157.168 Y152.491 E.00753
G1 X157.286 Y152.381 E.00613
G1 X157.412 Y152.352 E.00491
G1 X172.293 Y152.352 E.56557
G1 X172.468 Y152.381 E.00674
G1 X172.587 Y152.491 E.00616
G1 X172.627 Y152.685 E.00753
G1 X172.627 Y167.431 E.56044
G1 X172.587 Y167.712 E.01079
G1 X172.475 Y167.816 E.00581
G1 X172.237 Y167.851 E.00914
G1 X157.523 Y167.851 E.55922
G1 X157.346 Y167.829 E.00678
M204 P2500
G1 E-.64 F2100
;WIPE_START
G1 F19200
G1 X157.286 Y167.822 E-.00628
G1 X157.158 Y167.702 E-.01823
G1 X157.128 Y167.47 E-.02431
G1 X157.128 Y166.4 E-.11118
;WIPE_END
G1 Z.5 F720
G1 X160.785 Y153.557 F24000
G1 Z.2 F720
G1 E.8 F1500
M204 P500
;TYPE:Perimeter
;WIDTH:0.715629
G1 F2400
G1 X160.855 Y153.552 E.00393
;WIDTH:0.716276
G1 X161.317 Y153.581 E.02592
G1 X161.465 Y153.658 E.00934
;WIDTH:0.673021
G1 X161.614 Y153.735 E.00879
;WIDTH:0.629766
G1 X161.763 Y153.812 E.00818
;WIDTH:0.58651
G1 X161.912 Y153.889 E.00758
;WIDTH:0.543255
G1 X162.061 Y153.966 E.00698
;WIDTH:0.499999
G1 X162.511 Y154.294 E.02116
G1 X162.94 Y154.815 E.02565
G1 X163.196 Y155.376 E.02344
G1 X163.303 Y156.011 E.02447
G1 X163.272 Y156.528 E.01968
G1 X163.131 Y157.019 E.01942
G1 X162.895 Y157.46 E.01901
G1 X162.475 Y157.941 E.02427
G1 X162.145 Y158.172 E.01531
G1 X161.791 Y158.37 E.01542
G1 X161.374 Y158.5 E.0166
G1 X160.852 Y158.555 E.01995
G1 X160.278 Y158.486 E.02197
G1 X159.671 Y158.251 E.02474
G1 X159.139 Y157.857 E.02516
G1 X158.748 Y157.362 E.02397
G1 X158.497 Y156.784 E.02395
;WIDTH:0.546406
G1 X158.451 Y156.667 E.00526
;WIDTH:0.592812
G1 X158.406 Y156.549 E.00577
;WIDTH:0.639219
G1 X158.361 Y156.432 E.00622
;WIDTH:0.685625
G1 X158.315 Y156.314 E.00677
;WIDTH:0.707843
G1 X158.34 Y155.641 E.03723
G1 X158.392 Y155.54 E.00628
;WIDTH:0.666275
G1 X158.443 Y155.439 E.00586
;WIDTH:0.624706
G1 X158.495 Y155.338 E.0055
;WIDTH:0.583137
G1 X158.547 Y155.237 E.0051
;WIDTH:0.541568
G1 X158.599 Y155.136 E.00471
;WIDTH:0.499999
G1 X158.993 Y154.504 E.02831
G1 X159.432 Y154.099 E.0227
;WIDTH:0.537104
G1 X159.69 Y153.958 E.01208
;WIDTH:0.574209
G1 X159.949 Y153.817 E.01303
;WIDTH:0.611313
G1 X160.207 Y153.677 E.01387
;WIDTH:0.646085
G1 X160.258 Y153.647 E.00297
;WIDTH:0.680857
G1 X160.309 Y153.617 E.00314
;WIDTH:0.715629
G1 X160.359 Y153.587 E.00326
G1 X160.725 Y153.561 E.02052
M204 P2500
G1 X160.874 Y154.107 F24000
M204 P500
;TYPE:External perimeter
;WIDTH:0.499999
G1 F2400
G1 X161.18 Y154.129 E.01166
G1 X161.526 Y154.22 E.0136
G1 X161.91 Y154.406 E.01622
G1 X162.272 Y154.696 E.01763
G1 X162.577 Y155.093 E.01903
G1 X162.788 Y155.606 E.02108
G1 X162.851 Y156.122 E.01976
G1 X162.816 Y156.476 E.01352
G1 X162.694 Y156.876 E.01589
G1 X162.461 Y157.286 E.01792
G1 X162.109 Y157.657 E.01944
G1 X161.906 Y157.783 E.00908
G1 X161.533 Y157.975 E.01594
G1 X161.311 Y158.047 E.00887
G1 X160.89 Y158.1 E.01613
G1 X160.427 Y158.054 E.01768
G1 X159.929 Y157.874 E.02013
G1 X159.487 Y157.561 E.02058
G1 X159.16 Y157.164 E.01955
G1 X158.946 Y156.701 E.01939
G1 X158.854 Y156.18 E.02011
G1 X158.877 Y155.801 E.01443
G1 X159.037 Y155.267 E.02119
G1 X159.37 Y154.762 E.02299
G1 X159.672 Y154.488 E.0155
G1 X159.981 Y154.303 E.01369
G1 X160.429 Y154.148 E.01802
G1 X160.814 Y154.103 E.01473
M204 P2500
G1 E-.64 F2100
;WIPE_START
G1 F19200
G1 X160.874 Y154.107 E-.00625
G1 X161.18 Y154.129 E-.03188
G1 X161.526 Y154.22 E-.03717
G1 X161.91 Y154.406 E-.04433
G1 X162.213 Y154.649 E-.04037
;WIPE_END
G1 Z.5 F720
G1 X168.778 Y161.654 F24000
G1 Z.2 F720
G1 E.8 F1500
M204 P500
;TYPE:Perimeter
G1 F2400
G1 X168.849 Y161.647 E.00271
G1 X169.29 Y161.686 E.01683
G1 X169.72 Y161.806 E.01697
G1 X170.191 Y162.045 E.02007
G1 X170.635 Y162.418 E.02204
G1 X170.94 Y162.815 E.01903
G1 X171.196 Y163.376 E.02344
G1 X171.303 Y164.011 E.02447
G1 X171.271 Y164.531 E.0198
G1 X171.095 Y165.096 E.02249
G1 X170.795 Y165.599 E.02226
G1 X170.333 Y166.056 E.0247
G1 X169.791 Y166.37 E.02381
;WIDTH:0.527013
G1 X169.651 Y166.432 E.00616
;WIDTH:0.554027
G1 X169.51 Y166.495 E.00656
;WIDTH:0.594118
G1 X169.457 Y166.526 E.00281
;WIDTH:0.634208
G1 X169.405 Y166.557 E.00298
;WIDTH:0.674299
G1 X169.352 Y166.587 E.0032
;WIDTH:0.714389
G1 X169.299 Y166.618 E.00343
G1 X168.844 Y166.651 E.02547
;WIDTH:0.708569
G1 X168.435 Y166.625 E.02268
G1 X168.38 Y166.588 E.00367
;WIDTH:0.659341
G1 X168.324 Y166.552 E.00341
;WIDTH:0.610112
G1 X168.268 Y166.515 E.00317
;WIDTH:0.560883
G1 X167.969 Y166.383 E.01408
;WIDTH:0.530441
G1 X167.671 Y166.251 E.01321
;WIDTH:0.499999
G1 X167.139 Y165.857 E.02516
G1 X166.748 Y165.362 E.02397
G1 X166.497 Y164.784 E.02395
G1 X166.397 Y164.15 E.02439
G1 X166.439 Y163.67 E.01831
G1 X166.599 Y163.136 E.02119
G1 X166.815 Y162.763 E.01638
G1 X167.101 Y162.38 E.01817
G1 X167.432 Y162.099 E.0165
G1 X167.826 Y161.873 E.01726
G1 X168.318 Y161.703 E.01978
G1 X168.718 Y161.661 E.01529
M204 P2500
G1 X168.906 Y162.109 F24000
M204 P500
;TYPE:External perimeter
G1 F2400
G1 X169.18 Y162.129 E.01044
G1 X169.526 Y162.22 E.0136
G1 X169.91 Y162.406 E.01622
G1 X170.272 Y162.696 E.01763
G1 X170.577 Y163.093 E.01903
G1 X170.788 Y163.606 E.02108
G1 X170.851 Y164.122 E.01976
G1 X170.816 Y164.476 E.01352
G1 X170.694 Y164.876 E.01589
G1 X170.461 Y165.286 E.01792
G1 X170.094 Y165.667 E.02011
G1 X169.643 Y165.938 E.02
G1 X169.221 Y166.059 E.01668
G1 X168.89 Y166.1 E.01268
G1 X168.427 Y166.054 E.01768
G1 X167.929 Y165.874 E.02013
G1 X167.487 Y165.561 E.02058
G1 X167.16 Y165.164 E.01955
G1 X166.946 Y164.701 E.01939
G1 X166.854 Y164.17 E.02048
G1 X166.877 Y163.801 E.01405
G1 X167.037 Y163.267 E.02119
G1 X167.37 Y162.762 E.02299
G1 X167.672 Y162.488 E.0155
G1 X167.981 Y162.303 E.01369
G1 X168.429 Y162.148 E.01802
G1 X168.82 Y162.103 E.01496
G1 X168.846 Y162.105 E.00099
M204 P2500
G1 E-.64 F2100
;WIPE_START
G1 F19200
G1 X168.906 Y162.109 E-.00625
G1 X169.18 Y162.129 E-.02855
G1 X169.526 Y162.22 E-.03717
G1 X169.91 Y162.406 E-.04433
G1 X170.239 Y162.669 E-.0437
;WIPE_END
G1 Z.5 F720
G1 X171.987 Y153.919 F24000
G1 Z.2 F720
G1 E.8 F1500
M204 P500
;TYPE:Solid infill
;WIDTH:0.501404
G1 F2400
G1 X171.265 Y153.198 E.0389
G1 X170.617 Y153.198 E.0247
G1 X171.781 Y154.362 E.06276
G1 X171.781 Y155.01 E.0247
G1 X169.969 Y153.198 E.09769
G1 X169.32 Y153.198 E.02474
G1 X171.781 Y155.658 E.13266
G1 X171.781 Y156.307 E.02474
G1 X168.672 Y153.198 E.16762
G1 X168.023 Y153.198 E.02474
G1 X171.781 Y156.955 E.20258
G1 X171.781 Y157.604 E.02474
G1 X167.375 Y153.198 E.23755
G1 X166.727 Y153.198 E.0247
M104 T1 P36 S220
G1 X171.781 Y158.252 E.27248
G1 X171.781 Y158.9 E.0247
G1 X166.078 Y153.198 E.30745
G1 X165.43 Y153.198 E.0247
G1 X171.781 Y159.549 E.34241
G1 X171.781 Y160.197 E.0247
G1 X164.781 Y153.198 E.37737
G1 X164.133 Y153.198 E.0247
G1 X171.781 Y160.846 E.41234
G1 X171.781 Y161.494 E.0247
G1 X163.485 Y153.198 E.44727
G1 X162.836 Y153.198 E.02474
M104 T0 P48 S220
G1 X171.781 Y162.142 E.48224
G1 X171.781 Y162.791 E.02474
G1 X162.188 Y153.198 E.5172
G1 X161.957 Y153.198 E.00881
G1 X161.765 Y153.236 E.00746
G1 X161.671 Y153.287 E.00408
G1 X161.759 Y153.368 E.00456
G1 X161.895 Y153.459 E.00624
G1 X162.234 Y153.618 E.01427
G1 X162.422 Y153.732 E.00838
G1 X162.758 Y153.993 E.01622
G1 X162.937 Y154.173 E.00968
G1 X163.254 Y154.587 E.01988
G1 X163.385 Y154.815 E.01002
G1 X163.544 Y155.203 E.01599
G1 X169.745 Y161.404 E.33432
G1 X169.878 Y161.451 E.00538
G1 X170.234 Y161.618 E.01499
G1 X170.422 Y161.732 E.00838
G1 X170.758 Y161.993 E.01622
G1 X170.937 Y162.173 E.00968
G1 X171.254 Y162.587 E.01988
G1 X171.385 Y162.815 E.01002
G1 X171.544 Y163.203 E.01599
G1 X171.987 Y163.645 E.02386
M204 P2500
G1 X171.454 Y163.761 F24000
M204 P500
G1 F2400
G1 X171.781 Y164.088 E.01763
G1 X171.781 Y164.736 E.0247
G1 X171.652 Y164.607 E.00695
G1 X171.508 Y165.111 E.01998
G1 X171.781 Y165.384 E.01472
G1 X171.781 Y166.033 E.02474
G1 X171.292 Y165.544 E.02636
G1 X171.231 Y165.656 E.00486
G1 X171.085 Y165.857 E.00947
G1 X171.023 Y165.923 E.00345
G1 X171.781 Y166.681 E.04087
G1 X171.781 Y167.005 E.01235
G1 X171.457 Y167.005 E.01235
G1 X170.704 Y166.253 E.04057
G1 X170.546 Y166.382 E.00778
G1 X170.322 Y166.519 E.01001
G1 X170.808 Y167.005 E.0262
G1 X170.16 Y167.005 E.0247
G1 X169.737 Y166.582 E.02281
M204 P2500
G1 E-.64 F2100
;WIPE_START
G1 F19200
G1 X170.16 Y167.005 E-.06216
G1 X170.808 Y167.005 E-.06733
G1 X170.6 Y166.797 E-.03051
;WIPE_END
G1 Z.5 F720
G1 X169.178 Y161.484 F24000
G1 Z.2 F720
G1 E.8 F1500
M204 P500
G1 F2400
G1 X163.69 Y155.997 E.29585
G1 X163.694 Y156.188 E.00728
G1 X163.649 Y156.604 E.01595
G1 X168.35 Y161.305 E.25345
G1 X168.104 Y161.36 E.00961
G1 X167.851 Y161.455 E.0103
G1 X163.508 Y157.112 E.23415
G1 X163.492 Y157.165 E.00211
G1 X163.291 Y157.543 E.01632
G1 X167.407 Y161.659 E.22191
G1 X167.222 Y161.772 E.00826
G1 X167.027 Y161.927 E.0095
G1 X163.023 Y157.923 E.21587
G1 X162.707 Y158.255 E.01747
G1 X166.701 Y162.249 E.21533
G1 X166.436 Y162.633 E.01779
G1 X162.322 Y158.519 E.2218
G1 X162.124 Y158.641 E.00887
G1 X161.898 Y158.744 E.00947
G1 X166.217 Y163.062 E.23283
G1 X166.07 Y163.564 E.01994
G1 X161.391 Y158.885 E.25226
G1 X161.049 Y158.937 E.01319
G1 X160.799 Y158.941 E.00953
G1 X166.009 Y164.152 E.28092
G1 X166.024 Y164.366 E.00818
G1 X166.137 Y164.927 E.02182
G1 X160.016 Y158.807 E.32998
G1 X159.698 Y158.697 E.01283
G1 X159.46 Y158.577 E.01016
G1 X159.045 Y158.293 E.01917
G1 X158.849 Y158.116 E.01007
G1 X158.54 Y157.753 E.01817
G1 X158.402 Y157.539 E.00971
G1 X158.198 Y157.115 E.01794
G1 X158.137 Y156.927 E.00753
G1 X158.009 Y156.8 E.00687
